svgs/notenapp.svg

<svg width="24" height="24" viewBox="0 0 24 24" fill="none" xmlns="http://www.w3.org/2000/svg">
<path d="M3 5.7C3 4.20883 4.27245 3 5.84211 3H8.68421V5.7C9.82105 4.98 12 4.35001 16.2631 4.8C19.1053 5.09999 21 6.81472 21 9.3V18.3C21 19.7912 19.7275 21 18.1579 21H14.3684V12.45C14.3684 11.2074 13.308 10.2 12 10.2C10.692 10.2 9.63158 11.2074 9.63158 12.45V21H5.84211C4.27245 21 3 19.7912 3 18.3V5.7Z" fill="#FFF1C0"/>
</svg>

<svg xmlns="http://www.w3.org/2000/svg" viewBox="0 0 24 24"><path d="M3 5.7C3 4.209 4.272 3 5.842 3h2.842v2.7c1.137-.72 3.316-1.35 7.58-.9C19.104 5.1 21 6.815 21 9.3v9c0 1.491-1.273 2.7-2.842 2.7h-3.79v-8.55c0-1.243-1.06-2.25-2.368-2.25-1.308 0-2.368 1.007-2.368 2.25V21h-3.79C4.272 21 3 19.791 3 18.3V5.7Z"/></svg>
